X: 1
T: Strathcarron Dancers
C:\251 George Meikle
R: jig
B: George Meikle "Originally Mine" p.14
Z: 2010 John Chambers <jc:trillian.mit.edu>
M: 6/8
L: 1/8
K: Bb
d |\
"Bb"FBB "F/Bb"dBB | "Bb"FBB "D/Bb7"DBB | "Eb"GAB "Cm"BAG | "Bb"F3 F3d |
"Bb"FBB "F/Bb"dBB | "Bb"fBB "D/Bb7"dBB | "C"cdc "E/C7"BAG | "F"F3 F2d |
"Bb"FBB "F/Bb"dBB | "Bb"FBB "D/Bb7"DBB | "Eb"GAB "Cm"BAG | "Bb"F3 F3F |
"Eb"GAB "Cm"cBG | "Bb"FBd "Gm"f2e | "Bb"dcB "A/F7"cBA | "Bb"B3 B2d ||
"Bb"fdd "F/Bb"gdd | "Bb"gdd "D/B7"fdd | "Eb"GAB "G/Eb"BAG | "Bb"F3 F2d |
"Bb"fdd "F/Bb"gdd | "Bb"gdd "D/B7"fdd | "C"cdc "E/C7"=edc | "F"f3 "A/F7"f2e |
"Bb"fdd "F/Bb"gdd | "Bb"gdd "D/B7"fdd | "Eb"GAB "G/Eb"BAG | "Bb"F3 F2F |
"Eb"GAB "Cm"cBG | "Bb"FBd "Gm"f2e | "Bb"dcB "A/F7"cBA | "Bb"B3 B3 |]
%%begintext align
Composed in honour for an enthusiastic young group of Scottish Country dancers who were led by  Rita
Grzmyl. I used to play for them at many of the demonstrations they performed for in Gleneagles Hotel
and I and the band had the great pleasure of playing for them when they danced for the  Commonwealth
Prime Minister's Conference held in Gleneagles Hotel in 1978.
%%endtext

%%sep 1 1 500
%%sep 1 1 500

